X:1
T: The Marriage Knot
P:Very old tune
R:Reel
Q: 232
K:G
M:4/4
L:1/8
C3D B,3|A, ((3B,CD) G,4|G4-G2 GF|E2 A2 A2 Bc|
d4 c3B|cB AG GF ED|G2 AB BA GF|G4 G,3B,|
C3D B,3|A, ((3B,CD) G,4|E2 DC CB, A,G,|A,4 A,3B|
c3d e2 d2|((3efg) B4|cB AG FG AB|G4 G,4|
=f4 e2 d1/2e1/2f|e2 c2 c2 e^g|a2 e2 e2 ag|^f4 d2 ef|
g3d ed cB|g3d ed cB|cB AG FG AB|G4 G,3B,|
C2 D2 E3D|((3EFG) B,4|E2 DC CB, A,G,|A,4 A,3B|
c3d e3d|((3efg) z4|cB AG FG AB|G4 G,4||
